brandFactory_export/3.Masa/Documento_Archivo ENEX_3Masa.svg

<?xml version="1.0" encoding="UTF-8"?>
<svg width="24px" height="24px" viewBox="0 0 24 24" version="1.1" xmlns="http://www.w3.org/2000/svg" xmlns:xlink="http://www.w3.org/1999/xlink">
    <title>3.Masa/Documento_Archivo ENEX_3Masa</title>
    <g id="Symbols" stroke="none" stroke-width="1" fill="none" fill-rule="evenodd">
        <g id="3.Masa/Documento_Archivo-ENEX_3Masa" fill="#5CB615" fill-rule="nonzero">
            <path d="M16.2117647,0.0302521008 C16.487395,0.0302521008 16.7462185,0.134453782 16.9445378,0.322689076 L23.3042017,6.48067227 C23.4386555,6.61176471 23.5159664,6.77310924 23.5663866,6.94453782 C23.6033613,7.03193277 23.6235294,7.12941176 23.6235294,7.2302521 L23.6235294,21.9966387 C23.6235294,22.897479 22.8504202,23.6571429 21.9327731,23.6571429 L7.31428571,23.6571429 C6.41344538,23.6571429 5.62352941,22.8806723 5.62352941,21.9966387 L5.66386555,18.6722689 L2.90420168,18.6722689 C1.30420168,18.6722689 2.19149143e-10,17.3647059 2.19149143e-10,15.7613445 L2.19149143e-10,10.8470588 C2.19149143e-10,9.24369748 1.30420168,7.93613445 2.90420168,7.93613445 L5.62352941,7.93613445 L5.62352941,1.6907563 C5.62352941,0.820168067 6.4302521,0.0302521008 7.31428571,0.0302521008 L16.2117647,0.0302521008 Z M15.1193277,9.39495798 L2.90420168,9.39495798 C2.10420168,9.39495798 1.45546219,10.0470588 1.45546219,10.8470588 L1.45546219,15.7613445 C1.45546219,16.5613445 2.10420168,17.2134454 2.90420168,17.2134454 L15.1193277,17.2134454 C15.9193277,17.2134454 16.5680672,16.5613445 16.5680672,15.7613445 L16.5680672,10.8470588 C16.5680672,10.0470588 15.9193277,9.39495798 15.1193277,9.39495798 Z M6.17478992,11.3815126 L8.02689076,13.8857143 L8.02689076,11.3815126 L8.81008403,11.3815126 L8.81008403,15.2907563 L8.09411765,15.2907563 L6.29915966,12.9176471 L6.29915966,15.2907563 L5.51596639,15.2907563 L5.51596639,11.3815126 L6.17478992,11.3815126 Z M4.82689076,11.3815126 L4.75966387,12.0268908 L3.0789916,12.0268908 L3.0789916,12.9747899 L4.42352941,12.9747899 L4.42352941,13.6436975 L3.0789916,13.6436975 L3.0789916,14.6420168 L4.85714286,14.6420168 L4.85714286,15.287395 L2.18823529,15.287395 L2.18823529,11.3815126 L4.82689076,11.3815126 Z M12.2991597,11.3815126 L12.2319328,12.0268908 L10.5512605,12.0268908 L10.5512605,12.9747899 L11.8957983,12.9747899 L11.8957983,13.6436975 L10.5512605,13.6436975 L10.5512605,14.6420168 L12.3294118,14.6420168 L12.3294118,15.287395 L9.6605042,15.287395 L9.6605042,11.3815126 L12.2991597,11.3815126 Z M13.6840336,11.3815126 L14.4605042,12.6722689 L15.1697479,11.3815126 L16.1176471,11.3815126 L14.8369748,13.2941176 L16.0840336,15.287395 L15.0957983,15.287395 L14.3193277,13.9630252 L13.6168067,15.287395 L12.6521008,15.287395 L13.9462185,13.3411765 L12.7529412,11.3815126 L13.6840336,11.3815126 Z M16.6184874,2.03361345 L16.6184874,4.1512605 C16.6184874,4.94117647 16.8773109,5.60672269 17.3647059,6.08067227 C17.8621849,6.56134454 18.5613445,6.81344538 19.394958,6.81344538 L21.553,6.8132521 L16.6184874,2.03361345 Z" id="Documento_Archivo-ENEX_3Masa"></path>
        </g>
    </g>
</svg>

<svg width="24" height="24" viewBox="0 0 24 24" xmlns="http://www.w3.org/2000/svg"><path d="M16.212.03c.275 0 .534.104.733.293l6.36 6.158c.134.13.211.292.261.464a.735.735 0 01.058.285v14.767c0 .9-.774 1.66-1.691 1.66H7.314c-.9 0-1.69-.776-1.69-1.66l.04-3.325h-2.76A2.913 2.913 0 010 15.762v-4.915a2.913 2.913 0 012.904-2.91h2.72V1.69c0-.87.806-1.66 1.69-1.66h8.898zm-1.093 9.365H2.904c-.8 0-1.449.652-1.449 1.452v4.914c0 .8.65 1.452 1.45 1.452h12.214c.8 0 1.45-.652 1.45-1.452v-4.914c0-.8-.65-1.452-1.45-1.452zm-8.944 1.987l1.852 2.504v-2.504h.783v3.909h-.716L6.3 12.918v2.373h-.783v-3.91h.659zm-1.348 0l-.067.645H3.079v.948h1.345v.669H3.079v.998h1.778v.645H2.188v-3.905h2.639zm7.472 0l-.067.645h-1.68v.948h1.344v.669H10.55v.998h1.778v.645H9.661v-3.905h2.638zm1.385 0l.777 1.29.709-1.29h.948l-1.281 1.912 1.247 1.993h-.988l-.777-1.324-.702 1.324h-.965l1.294-1.946-1.193-1.96h.931zm2.934-9.348V4.15c0 .79.26 1.456.747 1.93.497.48 1.196.732 2.03.732h2.158l-4.935-4.78z" fill="#5CB615" fill-rule="nonzero"/></svg>
